Assets/Icons/smiley/smiley-good.svg

<svg enable-background="new 0 0 60 60" viewBox="0 0 60 60" xmlns="http://www.w3.org/2000/svg"><path d="m30 1.5c-15.71 0-28.5 12.79-28.5 28.5s12.79 28.5 28.5 28.5 28.5-12.79 28.5-28.5-12.79-28.5-28.5-28.5zm0 54c-14.06 0-25.5-11.44-25.5-25.5s11.44-25.5 25.5-25.5 25.5 11.44 25.5 25.5-11.44 25.5-25.5 25.5z"/><circle cx="22" cy="21" r="3"/><circle cx="38" cy="21" r="3"/><path d="m45.9 34.81-.72-.25c-.88-.3-1.84-.06-2.51.58-.9.86-2.38 1.96-4.13 2.85-2.56 1.32-5.52 2.01-8.54 2.01s-5.98-.69-8.55-2.01c-2.36-1.21-4.24-2.8-4.85-3.65-.13-.19-.36-.27-.58-.19l-1.93.66c-.3.1-.43.44-.28.72 1.13 2.09 4.5 4.23 6.26 5.13 3 1.53 6.43 2.34 9.93 2.34s6.93-.81 9.92-2.34c1.76-.9 5.13-3.04 6.26-5.13.15-.28.02-.62-.28-.72z"/></svg>

<?xml version="1.0" encoding="utf-8"?>
<!-- Generator: Adobe Illustrator 21.1.0, SVG Export Plug-In . SVG Version: 6.00 Build 0)  -->
<svg version="1.1" id="eps" xmlns="http://www.w3.org/2000/svg" xmlns:xlink="http://www.w3.org/1999/xlink" x="0px" y="0px"
	 viewBox="0 0 60 60" style="enable-background:new 0 0 60 60;" xml:space="preserve">
<g>
	<path d="M30,1.5C14.29,1.5,1.5,14.29,1.5,30S14.29,58.5,30,58.5S58.5,45.71,58.5,30S45.71,1.5,30,1.5z M30,55.5
		C15.94,55.5,4.5,44.06,4.5,30S15.94,4.5,30,4.5S55.5,15.94,55.5,30S44.06,55.5,30,55.5z"/>
	<circle cx="22" cy="21" r="3"/>
	<circle cx="38" cy="21" r="3"/>
	<path d="M45.9,34.81l-0.72-0.25c-0.88-0.3-1.84-0.06-2.51,0.58c-0.9,0.86-2.38,1.96-4.13,2.85C35.98,39.31,33.02,40,30,40
		s-5.98-0.69-8.55-2.01c-2.36-1.21-4.24-2.8-4.85-3.65c-0.13-0.19-0.36-0.27-0.58-0.19l-1.93,0.66c-0.3,0.1-0.43,0.44-0.28,0.72
		c1.13,2.09,4.5,4.23,6.26,5.13C23.07,42.19,26.5,43,30,43s6.93-0.81,9.92-2.34c1.76-0.9,5.13-3.04,6.26-5.13
		C46.33,35.25,46.2,34.91,45.9,34.81z"/>
</g>
</svg>
